src/iconfont/glyphs/chevron-circle-down.svg

<svg xmlns="http://www.w3.org/2000/svg" viewBox="0 0 1024 1024"><path fill="currentColor" d="M512 1024C229.231 1024 0 794.769 0 512S229.231 0 512 0s512 229.231 512 512-229.231 512-512 512m0-938.667C276.359 85.333 85.333 276.358 85.333 512S276.358 938.667 512 938.667 938.667 747.642 938.667 512 747.642 85.333 512 85.333m0 583.111h-.199c-11.717 0-22.316-4.787-29.948-12.512l-227.56-227.56a42.5 42.5 0 0 1-11.451-29.087c0-23.564 19.103-42.667 42.667-42.667 11.253 0 21.488 4.356 29.112 11.475l-.025-.023L512 565.474 709.404 368.07a42.5 42.5 0 0 1 29.087-11.451c23.564 0 42.667 19.103 42.667 42.667 0 11.253-4.356 21.488-11.475 29.112l.023-.025L542.15 655.929c-7.636 7.729-18.235 12.516-29.952 12.516h-.209.011z"/></svg>

<?xml version="1.0" encoding="UTF-8" standalone="no"?>
<!DOCTYPE svg PUBLIC "-//W3C//DTD SVG 1.1//EN" "http://www.w3.org/Graphics/SVG/1.1/DTD/svg11.dtd">
<svg width="100%" height="100%" viewBox="0 0 1024 1024" version="1.1" xmlns="http://www.w3.org/2000/svg" xmlns:xlink="http://www.w3.org/1999/xlink" xml:space="preserve" xmlns:serif="http://www.serif.com/" style="fill-rule:evenodd;clip-rule:evenodd;stroke-linejoin:round;stroke-miterlimit:2;">
    <g transform="matrix(0.875,0,0,0.875,64,64)">
        <path d="M512,1024C229.231,1024 0,794.769 0,512C0,229.231 229.231,0 512,0C794.769,0 1024,229.231 1024,512C1024,794.769 794.769,1024 512,1024M512,73.143C276.359,73.143 73.143,276.358 73.143,512C73.143,747.642 276.358,950.847 512,950.847C747.642,950.847 950.857,747.642 950.857,512C950.857,276.358 747.642,73.143 512,73.143M512,668.444L511.801,668.444C500.084,668.444 489.485,663.657 481.853,655.932L254.293,428.372C246.922,420.486 242.825,410.08 242.842,399.285C242.842,375.721 261.945,356.618 285.509,356.618C296.762,356.618 306.997,360.974 314.621,368.093L314.596,368.07L512,565.474L709.404,368.07C717.29,360.699 727.696,356.602 738.491,356.619C762.055,356.619 781.158,375.722 781.158,399.286C781.158,410.539 776.802,420.774 769.683,428.398L769.706,428.373L542.15,655.929C534.514,663.658 523.915,668.445 512.198,668.445L511.989,668.445L512,668.445L512,668.444Z" style="fill-rule:nonzero;"/>
    </g>
</svg>
